img/icons/stuff-icon2.svg

<svg width="36" height="36" viewBox="0 0 36 36" fill="none" xmlns="http://www.w3.org/2000/svg">
<path fill-rule="evenodd" clip-rule="evenodd" d="M10.5 3C8.84314 3 7.5 4.34315 7.5 6V16.4648C7.5 17.5393 8.07459 18.5317 9.0064 19.0666L14.4277 22.1789C12.9546 23.2722 12 25.0246 12 27C12 30.3137 14.6863 33 18 33C21.3137 33 24 30.3137 24 27C24 25.0246 23.0454 23.2722 21.5723 22.1789L26.9936 19.0666C27.9254 18.5317 28.5 17.5393 28.5 16.4648V6C28.5 4.34315 27.1569 3 25.5 3H10.5ZM10.5 16.4648V6H13.5V18.1871L10.5 16.4648ZM16.5 19.9093V6H19.5V19.9093L18 20.7704L16.5 19.9093ZM22.5 18.1871L25.5 16.4648V6H22.5V18.1871ZM15 27C15 28.6569 16.3431 30 18 30C19.6569 30 21 28.6569 21 27C21 25.3431 19.6569 24 18 24C16.3431 24 15 25.3431 15 27Z" fill="#E3000F"/>
</svg>

<svg width="36" height="36" fill="none" xmlns="http://www.w3.org/2000/svg"><path fill-rule="evenodd" clip-rule="evenodd" d="M10.5 3a3 3 0 00-3 3v10.465a3 3 0 001.506 2.602l5.422 3.112a6 6 0 107.145 0l5.42-3.112a3 3 0 001.507-2.602V6a3 3 0 00-3-3h-15zm0 13.465V6h3v12.187l-3-1.722zm6 3.444V6h3v13.91l-1.5.86-1.5-.86zm6-1.722l3-1.722V6h-3v12.187zM15 27a3 3 0 106 0 3 3 0 00-6 0z" fill="#E3000F"/></svg>
